assets/icons/vk.svg

<svg width="26" height="26" viewBox="0 0 26 26" fill="none" xmlns="http://www.w3.org/2000/svg">
<path fill-rule="evenodd" clip-rule="evenodd" d="M22.5395 7.80526C22.6802 7.33158 22.5395 7 21.883 7H19.6946C19.1318 7 18.8817 7.3 18.741 7.63158C18.741 7.63158 17.6312 10.3789 16.0524 12.1474C15.5366 12.6684 15.3177 12.8263 15.0363 12.8263C14.8957 12.8263 14.6924 12.6684 14.6924 12.1947V7.80526C14.6924 7.23684 14.5361 7 14.0672 7H10.6282C10.2843 7 10.0655 7.26842 10.0655 7.50526C10.0655 8.0421 10.8471 8.16842 10.9409 9.65263V12.9053C10.9409 13.6158 10.8158 13.7421 10.5344 13.7421C9.79975 13.7421 7.98648 10.9947 6.92353 7.83684C6.70469 7.25263 6.50148 7 5.93874 7H3.75032C3.12505 7 3 7.3 3 7.63158C3 8.21579 3.73469 11.1211 6.45459 14.9579C8.26785 17.5789 10.8158 19 13.1293 19C14.5205 19 14.6924 18.6842 14.6924 18.1474V16.1579C14.6924 15.5263 14.8175 15.4 15.2708 15.4C15.5991 15.4 16.1462 15.5579 17.4436 16.8211C18.9286 18.3211 19.1787 19 20.0072 19H22.1956C22.8209 19 23.1335 18.6842 22.9459 18.0684C22.7427 17.4526 22.0393 16.5526 21.1014 15.4789C20.5856 14.8632 19.8196 14.2158 19.6008 13.8842C19.2725 13.4579 19.3663 13.2684 19.6008 12.9053C19.6008 12.8895 22.2738 9.1 22.5395 7.80526Z" fill="#A6A6A6"/>
</svg>

<svg xmlns="http://www.w3.org/2000/svg" width="26" height="26" fill="none"><path fill="#A6A6A6" fill-rule="evenodd" d="M22.54 7.805c.14-.473 0-.805-.657-.805h-2.188c-.563 0-.813.3-.954.632 0 0-1.11 2.747-2.689 4.515-.515.521-.734.68-1.016.68-.14 0-.344-.159-.344-.632v-4.39c0-.568-.156-.805-.625-.805h-3.439c-.344 0-.563.268-.563.505 0 .537.782.663.876 2.148v3.252c0 .71-.125.837-.407.837-.734 0-2.548-2.747-3.61-5.905C6.704 7.253 6.5 7 5.939 7H3.75c-.625 0-.75.3-.75.632 0 .584.735 3.49 3.455 7.326C8.268 17.578 10.815 19 13.129 19c1.392 0 1.563-.316 1.563-.853v-1.99c0-.63.126-.757.579-.757.328 0 .875.158 2.173 1.421 1.485 1.5 1.735 2.179 2.563 2.179h2.189c.625 0 .938-.316.75-.932-.203-.615-.907-1.515-1.845-2.59-.515-.615-1.281-1.262-1.5-1.594-.328-.426-.235-.616 0-.979 0-.015 2.673-3.805 2.939-5.1Z" clip-rule="evenodd"/></svg>
